!! 00053] TT[KA
!! Kassette von Frau Li Wenzhen, Peking - Zum Gesangsheft
!!!OTL: Jian maigeng
!!!ARE: Asia, China, Shanxi
!! Ethnic Group: Han
!! MM, Seite 4, 2
!!!SCT: C1262
!!!YEM: Copyright 1995, estate of Helmut Schaffrath.
**kern
*ICvox
*Ivox
*M2/4
*k[b-]
*F:
{8g
8g
8cc
16dd
16ff
=1
8b-
8a
4g
=2
8g
8g
8cc
16dd
16ff
=3
8b-
8a
4g}
=4
{8g
8g
8cc
8dd
=5
8g
8dd
8cc
8b-
=6
8.a
16g
8cc
8g
=7
8f
8e
8d
8c}
=8
{4.cc
8ff
=9
8cc
8b-
8a
8g
=10
8f
4.c}
==
!!!AGN: Xiaodiao. Shenghuo xiaochang
!! Die Stuecke sind meist uebersteuert, also verzerrt.
!!!ONB: ESAC (Essen Associative Code) Database: CHINA
!!!AMT: simple duple
!!!AIN: vox
!!!EED: Helmut Schaffrath
!!!EEV: 1.0
*-
